packages/tokens/icons/announcement/size24Px.svg

<svg viewBox="0 0 24 24" fill="none" xmlns="http://www.w3.org/2000/svg" width="1em" height="1em"><path d="M7.24642 18.1581L5.69371 13.5H8.63962L10.0869 17.8419C10.1948 18.1657 9.95385 18.5 9.61257 18.5H7.72076C7.50554 18.5 7.31447 18.3623 7.24642 18.1581Z" stroke="currentColor"/><path d="M6 7.5H8.5V13.5H6C5.72386 13.5 5.5 13.2761 5.5 13V8C5.5 7.72386 5.72386 7.5 6 7.5Z" stroke="currentColor"/><path d="M2.5 10.5C2.5 8.87568 3.82759 7.53792 5.5 7.50079V13.4992C3.82759 13.4621 2.5 12.1243 2.5 10.5Z" stroke="currentColor"/><path d="M16.5 12.5V8.5H16.75C17.6682 8.5 18.5 9.34457 18.5 10.5C18.5 11.6554 17.6682 12.5 16.75 12.5H16.5Z" stroke="currentColor"/><path d="M15.8419 4.91308L8.5 7.36038V13.6396L15.8419 16.0869C16.1657 16.1948 16.5 15.9539 16.5 15.6126V5.38743C16.5 5.04615 16.1657 4.80516 15.8419 4.91308Z" stroke="currentColor"/><path d="M20.5 10.5H21.5" stroke="currentColor" stroke-linecap="round"/><path d="M20.5 8.5L21.5 7.5" stroke="currentColor" stroke-linecap="round"/><path d="M20.5 12.5L21.5 13.5" stroke="currentColor" stroke-linecap="round"/></svg>

<svg xmlns="http://www.w3.org/2000/svg" fill="none" viewBox="0 0 24 24" width="1em" height="1em"><path stroke="currentColor" d="M7.246 18.158 5.694 13.5H8.64l1.447 4.342a.5.5 0 0 1-.474.658H7.72a.5.5 0 0 1-.475-.342ZM6 7.5h2.5v6H6a.5.5 0 0 1-.5-.5V8a.5.5 0 0 1 .5-.5Zm-3.5 3c0-1.624 1.328-2.962 3-3v6c-1.672-.038-3-1.376-3-3Zm14 2v-4h.25c.918 0 1.75.845 1.75 2s-.832 2-1.75 2h-.25Z"/><path stroke="currentColor" d="M15.842 4.913 8.5 7.36v6.28l7.342 2.447a.5.5 0 0 0 .658-.474V5.387a.5.5 0 0 0-.658-.474Z"/><path stroke="currentColor" stroke-linecap="round" d="M20.5 10.5h1m-1-2 1-1m-1 5 1 1"/></svg>
